src/assets/join.svg

<svg width="22" height="13" viewBox="0 0 22 13" fill="none" xmlns="http://www.w3.org/2000/svg">
<path d="M7.33333 5.16671H4.58333V2.41671H2.75V5.16671H0V7.00004H2.75V9.75004H4.58333V7.00004H7.33333V5.16671ZM16.5 6.08337C18.0217 6.08337 19.2408 4.85504 19.2408 3.33337C19.2408 1.81171 18.0217 0.583374 16.5 0.583374C16.2067 0.583374 15.9225 0.629207 15.6658 0.711707C16.1883 1.45421 16.4908 2.35254 16.4908 3.33337C16.4908 4.31421 16.1792 5.20337 15.6658 5.95504C15.9225 6.03754 16.2067 6.08337 16.5 6.08337ZM11.9167 6.08337C13.4383 6.08337 14.6575 4.85504 14.6575 3.33337C14.6575 1.81171 13.4383 0.583374 11.9167 0.583374C10.395 0.583374 9.16667 1.81171 9.16667 3.33337C9.16667 4.85504 10.395 6.08337 11.9167 6.08337ZM17.985 8.06337C18.7458 8.73254 19.25 9.58504 19.25 10.6667V12.5H22V10.6667C22 9.25504 19.8275 8.38421 17.985 8.06337ZM11.9167 7.91671C10.0833 7.91671 6.41667 8.83337 6.41667 10.6667V12.5H17.4167V10.6667C17.4167 8.83337 13.75 7.91671 11.9167 7.91671Z" fill="white"/>
</svg>

<svg xmlns="http://www.w3.org/2000/svg" width="22" height="13" fill="none"><path fill="#fff" d="M7.333 5.167h-2.75v-2.75H2.75v2.75H0V7h2.75v2.75h1.833V7h2.75V5.167Zm9.167.916a2.738 2.738 0 0 0 2.74-2.75A2.738 2.738 0 0 0 15.667.712c.522.742.825 1.64.825 2.621 0 .981-.312 1.87-.825 2.622.256.083.54.128.834.128Zm-4.583 0a2.739 2.739 0 0 0 2.74-2.75c0-1.521-1.219-2.75-2.74-2.75a2.746 2.746 0 0 0-2.75 2.75 2.746 2.746 0 0 0 2.75 2.75Zm6.068 1.98c.76.67 1.265 1.522 1.265 2.604V12.5H22v-1.833c0-1.412-2.172-2.283-4.015-2.604Zm-6.068-.146c-1.834 0-5.5.916-5.5 2.75V12.5h11v-1.833c0-1.834-3.667-2.75-5.5-2.75Z"/></svg>
